X:1
T:Audley, 664.666.4
T:Audley, 664.666.4
T:Henry John Gauntlett, 1851
T:Public Domain Courtesy of the Cyber Hymnal™
C:Henry John Gauntlett, 1851
Z:Public Domain
Z:Courtesy of the Cyber Hymnal™
%%score ( 1 2 ) ( 3 4 )
L:1/8
Q:1/4=113
M:3/4
K:Ab
V:1 treble 
V:2 treble 
V:3 bass 
V:4 bass 
V:1
 E2 C2 E2 | A3 B A2 | [FA]2 F2 [FA]2 | [FB]3 [Fc] [FB]2 | [Ee]2 [Ee]2 [Ed]2 | [Ec]6 | %6
 [Fc]2 [Fc]2 [GB]2 | [FA]3 [=EG] F2 | [FB]2 [EB]2 [FA]2 | [EG]3 [=DF] E2 | [B,E]2 [B,E]2 [EG]2 | %11
 [EA]3 [DB] [Cc]2 | [=Dc]2 [Ec]2 [_DB]2 | [CA]6 |] %14
V:2
 E2 C2 E2 | A3 B A2 | x2 F2 x2 | x6 | x6 | x6 | x6 | x4 F2 | x6 | x4 E2 | x6 | x6 | x6 | x6 |] %14
V:3
 E,2 C,2 E,2 | A,3 B, A,2 | [A,C]2 [A,C]2 [A,C]2 | [A,D]3 [A,D] [A,D]2 | [G,B,]2 [G,B,]2 [G,B,]2 | %5
 A,6 | [A,C]2 [A,C]2 [=E,C]2 | [F,C]3 [G,B,] [A,C]2 | [A,=D]2 [G,E]2 [=D,B,]2 | %9
 [E,B,]3 [F,A,] [G,B,]2 | [E,G,]2 [=D,A,]2 [_D,B,]2 | [C,A,]3 [B,,G,] [A,,A,]2 | %12
 [F,A,]2 [E,A,]2 [E,G,]2 | [A,,A,]6 |] %14
V:4
 E,2 C,2 E,2 | A,3 B, A,2 | x6 | x6 | x6 | A,6 | x6 | x6 | x6 | x6 | x6 | x6 | x6 | x6 |] %14

